X: 30
T: Tam Lin
C: Davey Arthur
Z: Michael Eskin
S: https://thesession.org/tunes/248#setting51873
R: reel
M: 4/4
L: 1/8
K: Dmin
|:"Dm"A,2 DA, FA,DA,|"Bb"B,2 DB, FB,DB,|"C"C2 EC GCEC|FEDC A,DDC|
"Dm"A,2 DA, FA,DA,|"Bb"B,2 DB, FB,DB,|"C"C2 EC GCEC|FEDC "Dm"A,D D2:|
|:"Dm"dA ~A2 FADA|dA ~A2 FADA|"C"cG ~G2 EG ~G2|cG ~G2 cdec|
"Dm"dA ~A2 FADA|dA ~A2 FADA|"Bb"~B,2B, A, B,CDE|"C"FDEC "Dm"A,D D2:|

